svgs/sharp-solid/globe-snow.svg

<svg xmlns="http://www.w3.org/2000/svg" viewBox="0 0 448 512"><!--! Font Awesome Pro 6.6.0 by @fontawesome - https://fontawesome.com License - https://fontawesome.com/license (Commercial License) Copyright 2024 Fonticons, Inc. --><path d="M380.8 384c41.5-40.7 67.2-97.3 67.2-160C448 100.3 347.7 0 224 0S0 100.3 0 224c0 62.7 25.7 119.3 67.2 160L192 384l0-32-80 0 0-16 80-80-48 0 0-16 80-80 80 80 0 16-48 0 80 80 0 16-80 0 0 32 124.8 0zM80 192a16 16 0 1 1 0 32 16 16 0 1 1 0-32zM224 80a16 16 0 1 1 32 0 16 16 0 1 1 -32 0zm112 80a16 16 0 1 1 0 32 16 16 0 1 1 0-32zM0 512l448 0-64-96L64 416 0 512z"/></svg>

<svg xmlns="http://www.w3.org/2000/svg" viewBox="0 0 448 512"><!--! Font Awesome Pro 6.5.2 by @fontawesome - https://fontawesome.com License - https://fontawesome.com/license (Commercial License) Copyright 2024 Fonticons, Inc. --><path d="M380.8 384c41.5-40.7 67.2-97.3 67.2-160C448 100.3 347.7 0 224 0S0 100.3 0 224c0 62.7 25.7 119.3 67.2 160H192V352H112V336l80-80H144V240l80-80 80 80v16H256l80 80v16H256v32H380.8zM80 192a16 16 0 1 1 0 32 16 16 0 1 1 0-32zM224 80a16 16 0 1 1 32 0 16 16 0 1 1 -32 0zm112 80a16 16 0 1 1 0 32 16 16 0 1 1 0-32zM0 512H448l-64-96H64L0 512z"/></svg>
